ExpEYES17/UserManual/fr/rst/exp/schematics/transistor_out.svg

<?xml version="1.0" encoding="UTF-8" standalone="no"?>
<svg
   xmlns:dc="http://purl.org/dc/elements/1.1/"
   xmlns:cc="http://creativecommons.org/ns#"
   xmlns:rdf="http://www.w3.org/1999/02/22-rdf-syntax-ns#"
   xmlns:svg="http://www.w3.org/2000/svg"
   xmlns="http://www.w3.org/2000/svg"
   xmlns:sodipodi="http://sodipodi.sourceforge.net/DTD/sodipodi-0.dtd"
   xmlns:inkscape="http://www.inkscape.org/namespaces/inkscape"
   version="1.1"
   id="transistor_out"
   width="100%"
   height="100%"
   viewBox="-6 -6 566 454"
   sodipodi:docname="transistor_out.svg"
   inkscape:export-filename="/home/georgesk/developpement/expeyes/expeyes/ExpEYES17/UserManual/fr/rst/exp/schematics/transistor_out.png"
   inkscape:export-xdpi="51.245552"
   inkscape:export-ydpi="51.245552"
   inkscape:version="0.92.2 (5c3e80d, 2017-08-06)">
  <metadata
     id="metadata115">
    <rdf:RDF>
      <cc:Work
         rdf:about="">
        <dc:format>image/svg+xml</dc:format>
        <dc:type
           rdf:resource="http://purl.org/dc/dcmitype/StillImage" />
        <dc:title></dc:title>
      </cc:Work>
    </rdf:RDF>
  </metadata>
  <defs
     id="defs113" />
  <sodipodi:namedview
     pagecolor="#ffffff"
     bordercolor="#666666"
     borderopacity="1"
     objecttolerance="10"
     gridtolerance="10"
     guidetolerance="10"
     inkscape:pageopacity="0"
     inkscape:pageshadow="2"
     inkscape:window-width="1668"
     inkscape:window-height="1013"
     id="namedview111"
     showgrid="false"
     inkscape:zoom="1.6467855"
     inkscape:cx="284.21449"
     inkscape:cy="227"
     inkscape:window-x="0"
     inkscape:window-y="0"
     inkscape:window-maximized="1"
     inkscape:current-layer="transistor_out" />
  <desc
     id="desc2">
XCircuit Version 3.7
File &quot;npn_ce_out.ps&quot; Page 1
</desc>
  <path
     style="fill:none;stroke:#000000;stroke-width:2;stroke-linecap:round;stroke-linejoin:bevel"
     inkscape:connector-curvature="0"
     id="path4"
     d="M 336,48 V 76" />
  <path
     style="fill:none;stroke:#000000;stroke-width:2;stroke-linecap:round;stroke-linejoin:bevel"
     inkscape:connector-curvature="0"
     id="path6"
     d="M 336,176 V 148" />
  <path
     style="fill:none;stroke:#000000;stroke-width:2;stroke-linecap:round;stroke-linejoin:bevel"
     inkscape:connector-curvature="0"
     id="path8"
     d="m 336,148 14,-6 -28,-12 28,-12 -28,-12 28,-12 -28,-12 14,-6" />
  <circle
     style="fill:none;stroke:#000000;stroke-width:2;stroke-linecap:round;stroke-linejoin:bevel"
     r="16"
     id="ellipse16"
     cy="272"
     cx="208" />
  <path
     style="fill:none;stroke:#000000;stroke-width:2;stroke-linecap:round;stroke-linejoin:bevel"
     inkscape:connector-curvature="0"
     id="path18"
     d="m 464,176 v 48 h 64 v -48 z" />
  <path
     style="fill:none;stroke:#000000;stroke-width:2;stroke-linecap:round;stroke-linejoin:bevel"
     inkscape:connector-curvature="0"
     id="path20"
     d="m 448,288 v 48 h 96 v -48 z" />
  <path
     style="fill:none;stroke:#000000;stroke-width:2;stroke-linecap:round;stroke-linejoin:bevel"
     inkscape:connector-curvature="0"
     id="path22"
     d="M 0,0 V 448 H 560 V 0 Z" />
  <circle
     style="fill:none;stroke:#000000;stroke-width:2;stroke-linecap:round;stroke-linejoin:bevel"
     r="16"
     id="ellipse24"
     cy="192"
     cx="336" />
  <circle
     style="fill:none;stroke:#000000;stroke-width:2;stroke-linecap:round;stroke-linejoin:bevel"
     r="16"
     id="ellipse26"
     cy="32"
     cx="336" />
  <path
     style="fill:none;stroke:#000000;stroke-width:2;stroke-linecap:round;stroke-linejoin:bevel"
     inkscape:connector-curvature="0"
     id="path28"
     d="m 16,80 v 48 h 96 V 80 Z" />
  <path
     style="fill:none;stroke:#000000;stroke-width:2;stroke-linecap:round;stroke-linejoin:bevel"
     inkscape:connector-curvature="0"
     id="path30"
     d="M 288,272 H 272" />
  <path
     style="fill:none;stroke:#000000;stroke-width:2;stroke-linecap:round;stroke-linejoin:bevel"
     inkscape:connector-curvature="0"
     id="path32"
     d="m 288,224 v 96" />
  <path
     style="fill:none;stroke:#000000;stroke-width:2;stroke-linecap:round;stroke-linejoin:bevel"
     inkscape:connector-curvature="0"
     id="path34"
     d="m 336,224 -48,26" />
  <path
     style="fill:none;stroke:#000000;stroke-width:2;stroke-linecap:round;stroke-linejoin:bevel"
     inkscape:connector-curvature="0"
     id="path36"
     d="M 336,224 V 208" />
  <path
     style="fill:none;stroke:#000000;stroke-width:2;stroke-linecap:round;stroke-linejoin:bevel"
     inkscape:connector-curvature="0"
     id="path38"
     d="M 336,320 288,294" />
  <path
     style="fill:none;stroke:#000000;stroke-width:2;stroke-linecap:round;stroke-linejoin:bevel"
     inkscape:connector-curvature="0"
     id="path40"
     d="m 336,320 v 16" />
  <path
     style="fill:#000000;stroke:none"
     inkscape:connector-curvature="0"
     id="path42"
     d="m 308,313 c 11,1 14,2 28,7 -11,-10 -14,-12 -20,-21 -2,6 -4,10 -8,14" />
  <path
     style="fill:none;stroke:#000000;stroke-width:2;stroke-linecap:round;stroke-linejoin:bevel"
     inkscape:connector-curvature="0"
     id="path44"
     d="m 224,272 h 48" />
  <path
     style="fill:none;stroke:#000000;stroke-width:2;stroke-linecap:round;stroke-linejoin:bevel"
     inkscape:connector-curvature="0"
     id="path46"
     d="M 192,272 H 164" />
  <path
     style="fill:none;stroke:#000000;stroke-width:2;stroke-linecap:round;stroke-linejoin:bevel"
     inkscape:connector-curvature="0"
     id="path48"
     d="M 64,272 H 92" />
  <path
     style="fill:none;stroke:#000000;stroke-width:2;stroke-linecap:round;stroke-linejoin:bevel"
     inkscape:connector-curvature="0"
     id="path50"
     d="m 92,272 6,14 12,-28 12,28 12,-28 12,28 12,-28 6,14" />
  <circle
     style="fill:none;stroke:#000000;stroke-width:2;stroke-linecap:round;stroke-linejoin:bevel"
     r="16"
     id="ellipse52"
     cy="272"
     cx="48" />
  <circle
     style="fill:none;stroke:#000000;stroke-width:2;stroke-linecap:round;stroke-linejoin:bevel"
     r="16"
     id="ellipse54"
     cy="384"
     cx="336" />
  <path
     style="fill:none;stroke:#000000;stroke-width:2;stroke-linecap:round;stroke-linejoin:bevel"
     inkscape:connector-curvature="0"
     id="path56"
     d="M 336,368 V 336" />
  <path
     style="fill:none;stroke:#000000;stroke-width:2;stroke-linecap:round;stroke-linejoin:bevel"
     inkscape:connector-curvature="0"
     id="path58"
     d="M 48,256 C 49,256 0,192 64,128" />
  <path
     style="fill:none;stroke:#000000;stroke-width:2;stroke-linecap:round;stroke-linejoin:bevel"
     inkscape:connector-curvature="0"
     id="path60"
     d="m 352,192 c 1,0 64,-64 112,0" />
  <path
     style="fill:none;stroke:#000000;stroke-width:2;stroke-linecap:round;stroke-linejoin:bevel"
     inkscape:connector-curvature="0"
     id="path62"
     d="m 352,384 c 1,0 48,16 96,-80" />
  <path
     style="fill:none;stroke:#000000;stroke-width:2;stroke-linecap:round;stroke-linejoin:bevel"
     inkscape:connector-curvature="0"
     id="path64"
     d="m 128,384 v 48 h 64 v -48 z" />
  <path
     style="fill:none;stroke:#000000;stroke-width:2;stroke-linecap:round;stroke-linejoin:bevel"
     inkscape:connector-curvature="0"
     id="path66"
     d="m 208,288 c 1,0 16,64 -48,96" />
  <path
     style="fill:none;stroke:#000000;stroke-width:2;stroke-linecap:round;stroke-linejoin:bevel"
     inkscape:connector-curvature="0"
     id="path68"
     d="m 448,64 v 48 h 96 V 64 Z" />
  <text
     font-size="40"
     id="text72"
     style="font-size:40px;font-family:Helvetica;fill:#000000;stroke:none"
     x="96"
     y="240">
    <tspan
       x="96"
       y="240"
       id="tspan70">100 kΩ</tspan>
  </text>
  <path
     style="fill:none;stroke:#000000;stroke-width:2;stroke-linecap:round;stroke-linejoin:bevel"
     inkscape:connector-curvature="0"
     id="path76"
     d="m 448,80 c 1,0 -16,-64 -96,-48" />
  <text
     font-size="40"
     id="text80"
     style="font-size:40px;font-family:Helvetica;fill:#000000;stroke:none"
     x="25.241249"
     y="118.58">
    <tspan
       x="25.241249"
       y="118.58"
       id="tspan78">PV2</tspan>
  </text>
  <text
     font-size="40"
     id="text86"
     style="font-size:40px;font-family:Helvetica;fill:#000000;stroke:none"
     x="460.52124"
     y="102.58">
    <tspan
       x="460.52124"
       y="102.58"
       id="tspan84">PV1</tspan>
  </text>
  <text
     font-size="40"
     id="text92"
     style="font-size:40px;font-family:Helvetica;fill:#000000;stroke:none"
     x="475.36063"
     y="214.58">
    <tspan
       x="475.36063"
       y="214.58"
       id="tspan90">A1</tspan>
  </text>
  <text
     font-size="40"
     id="text98"
     style="font-size:40px;font-family:Helvetica;fill:#000000;stroke:none"
     x="451.78"
     y="326.57999">
    <tspan
       x="451.78"
       y="326.57999"
       id="tspan96">GND</tspan>
  </text>
  <text
     font-size="40"
     id="text104"
     style="font-size:40px;font-family:Helvetica;fill:#000000;stroke:none"
     x="136.08063"
     y="422.57999">
    <tspan
       x="136.08063"
       y="422.57999"
       id="tspan102">A2</tspan>
  </text>
  <text
     font-size="40"
     id="text72-3"
     style="font-size:40px;font-family:Helvetica;fill:#000000;stroke:none"
     x="218.0699"
     y="126.71428">
    <tspan
       x="218.0699"
       y="126.71428"
       id="tspan70-6">1 kΩ</tspan>
  </text>
</svg>

<svg xmlns="http://www.w3.org/2000/svg"
   xmlns:xlink="http://www.w3.org/1999/xlink"
   version="1.1"
   id="transistor_out" width="100%" height="100%"  viewBox="-6 -6 566 454">
<desc>
XCircuit Version 3.7
File "npn_ce_out.ps" Page 1
</desc>
<g stroke="black">
<path d="M336,48 L336,76 " fill="none" stroke-width="2" stroke-linejoin="bevel" stroke-linecap="round" stroke="#000000" />
<path d="M336,176 L336,148 " fill="none" stroke-width="2" stroke-linejoin="bevel" stroke-linecap="round" stroke="#000000" />
<path d="M336,148 L350,142 322,130 350,118 322,106 350,94 322,82 336,76 " fill="none" stroke-width="2" stroke-linejoin="bevel" stroke-linecap="round" stroke="#000000" />
<g transform="matrix(   1    0   -0    1 272 128)" fill="#000000" >
<text stroke="none" font-family="Helvetica" font-size="40" ><tspan x="0" y="0">1K</tspan>
</text></g>
<ellipse cx="208" cy="272" rx="16" ry="16" fill="none" stroke-width="2" stroke-linejoin="bevel" stroke-linecap="round" stroke="#000000" />
<path d="M464,176 L464,224 528,224 528,176 z" fill="none" stroke-width="2" stroke-linejoin="bevel" stroke-linecap="round" stroke="#000000" />
<path d="M448,288 L448,336 544,336 544,288 z" fill="none" stroke-width="2" stroke-linejoin="bevel" stroke-linecap="round" stroke="#000000" />
<path d="M0,0 L0,448 560,448 560,0 z" fill="none" stroke-width="2" stroke-linejoin="bevel" stroke-linecap="round" stroke="#000000" />
<ellipse cx="336" cy="192" rx="16" ry="16" fill="none" stroke-width="2" stroke-linejoin="bevel" stroke-linecap="round" stroke="#000000" />
<ellipse cx="336" cy="32" rx="16" ry="16" fill="none" stroke-width="2" stroke-linejoin="bevel" stroke-linecap="round" stroke="#000000" />
<path d="M16,80 L16,128 112,128 112,80 z" fill="none" stroke-width="2" stroke-linejoin="bevel" stroke-linecap="round" stroke="#000000" />
<path d="M288,272 L272,272 " fill="none" stroke-width="2" stroke-linejoin="bevel" stroke-linecap="round" stroke="#000000" />
<path d="M288,224 L288,320 " fill="none" stroke-width="2" stroke-linejoin="bevel" stroke-linecap="round" stroke="#000000" />
<path d="M336,224 L288,250 " fill="none" stroke-width="2" stroke-linejoin="bevel" stroke-linecap="round" stroke="#000000" />
<path d="M336,224 L336,208 " fill="none" stroke-width="2" stroke-linejoin="bevel" stroke-linecap="round" stroke="#000000" />
<path d="M336,320 L288,294 " fill="none" stroke-width="2" stroke-linejoin="bevel" stroke-linecap="round" stroke="#000000" />
<path d="M336,320 L336,336 " fill="none" stroke-width="2" stroke-linejoin="bevel" stroke-linecap="round" stroke="#000000" />
<path d="M308,313 C319,314 322,315 336,320 C325,310 322,308 316,299 C314,305 312,309 308,313 " fill="#000000" stroke="none" />
<path d="M224,272 L272,272 " fill="none" stroke-width="2" stroke-linejoin="bevel" stroke-linecap="round" stroke="#000000" />
<path d="M192,272 L164,272 " fill="none" stroke-width="2" stroke-linejoin="bevel" stroke-linecap="round" stroke="#000000" />
<path d="M64,272 L92,272 " fill="none" stroke-width="2" stroke-linejoin="bevel" stroke-linecap="round" stroke="#000000" />
<path d="M92,272 L98,286 110,258 122,286 134,258 146,286 158,258 164,272 " fill="none" stroke-width="2" stroke-linejoin="bevel" stroke-linecap="round" stroke="#000000" />
<ellipse cx="48" cy="272" rx="16" ry="16" fill="none" stroke-width="2" stroke-linejoin="bevel" stroke-linecap="round" stroke="#000000" />
<ellipse cx="336" cy="384" rx="16" ry="16" fill="none" stroke-width="2" stroke-linejoin="bevel" stroke-linecap="round" stroke="#000000" />
<path d="M336,368 L336,336 " fill="none" stroke-width="2" stroke-linejoin="bevel" stroke-linecap="round" stroke="#000000" />
<path d="M48,256 C49,256 0,192 64,128 " fill="none" stroke-width="2" stroke-linejoin="bevel" stroke-linecap="round" stroke="#000000" />
<path d="M352,192 C353,192 416,128 464,192 " fill="none" stroke-width="2" stroke-linejoin="bevel" stroke-linecap="round" stroke="#000000" />
<path d="M352,384 C353,384 400,400 448,304 " fill="none" stroke-width="2" stroke-linejoin="bevel" stroke-linecap="round" stroke="#000000" />
<path d="M128,384 L128,432 192,432 192,384 z" fill="none" stroke-width="2" stroke-linejoin="bevel" stroke-linecap="round" stroke="#000000" />
<path d="M208,288 C209,288 224,352 160,384 " fill="none" stroke-width="2" stroke-linejoin="bevel" stroke-linecap="round" stroke="#000000" />
<path d="M448,64 L448,112 544,112 544,64 z" fill="none" stroke-width="2" stroke-linejoin="bevel" stroke-linecap="round" stroke="#000000" />
<g transform="matrix(   1    0   -0    1  96 240)" fill="#000000" >
<text stroke="none" font-family="Helvetica" font-size="40" ><tspan x="0" y="0">100K</tspan>
</text></g>
<path d="M448,80 C449,80 432,16 352,32 " fill="none" stroke-width="2" stroke-linejoin="bevel" stroke-linecap="round" stroke="#000000" />
<g transform="matrix(   1    0   -0    1  32 112)" fill="#000000" >
<text stroke="none" font-family="Helvetica" font-size="40" ><tspan x="0" y="0">PV2</tspan>
</text></g>
<g transform="matrix(   1    0   -0    1 464  96)" fill="#000000" >
<text stroke="none" font-family="Helvetica" font-size="40" ><tspan x="0" y="0">PV1</tspan>
</text></g>
<g transform="matrix(   1    0   -0    1 480 208)" fill="#000000" >
<text stroke="none" font-family="Helvetica" font-size="40" ><tspan x="0" y="0">A1</tspan>
</text></g>
<g transform="matrix(   1    0   -0    1 448 320)" fill="#000000" >
<text stroke="none" font-family="Helvetica" font-size="40" ><tspan x="0" y="0">GND</tspan>
</text></g>
<g transform="matrix(   1    0   -0    1 128 416)" fill="#000000" >
<text stroke="none" font-family="Helvetica" font-size="40" ><tspan x="0" y="0">A2</tspan>
</text></g>
</g>
</svg>
